icons/insert-row-bottom.svg

<svg viewBox="0 0 24 24" fill="currentColor" xmlns="http://www.w3.org/2000/svg"><path d="M12 13C14.7614 13 17 15.2386 17 18C17 20.7614 14.7614 23 12 23C9.23858 23 7 20.7614 7 18C7 15.2386 9.23858 13 12 13ZM13 15H11V16.999L9 17V19L11 18.999V21H13V18.999L15 19V17L13 16.999V15ZM20 3C20.5523 3 21 3.44772 21 4V10C21 10.5523 20.5523 11 20 11H4C3.44772 11 3 10.5523 3 10V4C3 3.44772 3.44772 3 4 3H20ZM5 5V9H19V5H5Z"/></svg>

<svg xmlns="http://www.w3.org/2000/svg" viewBox="0 0 24 24">
    <g>
        <path fill="none" d="M0 0H24V24H0z"/>
        <path d="M12 13c2.761 0 5 2.239 5 5s-2.239 5-5 5-5-2.239-5-5 2.239-5 5-5zm1 2h-2v1.999L9 17v2l2-.001V21h2v-2.001L15 19v-2l-2-.001V15zm7-12c.552 0 1 .448 1 1v6c0 .552-.448 1-1 1H4c-.552 0-1-.448-1-1V4c0-.552.448-1 1-1h16zM5 5v4h14V5H5z"/>
    </g>
</svg>
